icon-themes/sifr_svg/cmd/lc_changecasetoupper.svg

<svg viewBox="0 0 24 24" xmlns="http://www.w3.org/2000/svg"><path d="m17.5625 1-.28125.28125-4 4c-.18821.18818-.28125.45346-.28125.71875v1h1c.26531.00004.53057-.09314.71875-.28125l2.28125-2.28125v6.5625h2v-6.5625l2.28125 2.28125c.18817.18815.45345.28125.71875.28125h1v-1c-.00003-.26531-.09311-.53058-.28125-.71875l-4-4-.28125-.28125zm-1.5625 5.8515625-.574219.5742187c-.403713.4035631-.926229.5742941-1.425781.5742188h2zm-2 1.1484375h-2v14h7c2.761424 0 5-2.238576 5-5 0-1.4-1.123582-3.70114-2.878906-4.523438.54226-.676561.878906-1.476562.878906-2.476562 0-.7702998-.22919-1.4855279-.609375-2.0976562-.293541-.0884234-.576816-.2369979-.816406-.4765626l-.574219-.5742187v3.1484375 2h-2-2-2zm-12 4v2h6v2h-5c-1.656854 0-3 1.343146-3 3s1.343146 3 3 3h7v-8c0-1.10457-.89543-2-2-2zm12 2h5c1.656854 0 3 1.343146 3 3s-1.343146 3-3 3h-5zm-11 4h5v2h-5c-.552284 0-1-.447716-1-1s.447716-1 1-1z" fill="#555753"/></svg>

<svg viewBox="0 0 24 24" xmlns="http://www.w3.org/2000/svg">
  <path
     style="fill:#555753"
     d="M 17.5625 1 L 17.28125 1.28125 L 13.28125 5.28125 C 13.09304 5.46943 13 5.73471 13 6 L 13 7 L 14 7 C 14.26531 7.00004 14.53057 6.90686 14.71875 6.71875 L 17 4.4375 L 17 11 L 19 11 L 19 4.4375 L 21.28125 6.71875 C 21.46942 6.9069 21.7347 7 22 7 L 23 7 L 23 6 C 22.99997 5.73469 22.90689 5.46942 22.71875 5.28125 L 18.71875 1.28125 L 18.4375 1 L 17.5625 1 z M 16 6.8515625 L 15.425781 7.4257812 C 15.022068 7.8293443 14.499552 8.0000753 14 8 L 16 8 L 16 6.8515625 z M 14 8 L 12 8 L 12 22 L 19 22 C 21.761424 22 24 19.761424 24 17 C 24 15.6 22.876418 13.29886 21.121094 12.476562 C 21.663354 11.800001 22 11 22 10 C 22 9.2297002 21.77081 8.5144721 21.390625 7.9023438 C 21.097084 7.8139204 20.813809 7.6653459 20.574219 7.4257812 L 20 6.8515625 L 20 10 L 20 12 L 18 12 L 16 12 L 14 12 L 14 8 z M 2 12 L 2 14 L 8 14 L 8 16 L 3 16 C 1.343146 16 0 17.343146 0 19 C 0 20.656854 1.343146 22 3 22 L 10 22 L 10 14 C 10 12.89543 9.10457 12 8 12 L 2 12 z M 14 14 L 19 14 C 20.656854 14 22 15.343146 22 17 C 22 18.656854 20.656854 20 19 20 L 14 20 L 14 14 z M 3 18 L 8 18 L 8 20 L 3 20 C 2.447716 20 2 19.552284 2 19 C 2 18.447716 2.447716 18 3 18 z "
     />
</svg>
